icons/HSB-Collections/16x16/actions/system-software-install.svg

<svg xmlns="http://www.w3.org/2000/svg" width="16" height="16" version="1.1">
 <defs>
  <style id="current-color-scheme" type="text/css">
   .ColorScheme-Text { color:#444444; } .ColorScheme-Highlight { color:#4285f4; } .ColorScheme-NeutralText { color:#ff9800; } .ColorScheme-PositiveText { color:#4caf50; } .ColorScheme-NegativeText { color:#f44336; }
  </style>
 </defs>
 <path style="fill:currentColor" class="ColorScheme-Text" d="m 1.9995103,0.99991816 c -0.5540001,0 -1.00000003,0.44599994 -1.00000003,1.00000004 v 4 c 0,0.5540001 0.44599993,1.0000001 1.00000003,1.0000001 h 4.0000004 c 0.554,0 1,-0.446 1,-1.0000001 v -4 c 0,-0.5540001 -0.446,-1.00000004 -1,-1.00000004 z m 8.0000004,0 c -0.554,0 -1,0.44600004 -1,1.00000004 v 4 c 0,0.5540001 0.446,1.0000001 1,1.0000001 h 4.0000003 c 0.554,0 1,-0.446 1,-1.0000001 v -4 c 0,-0.554 -0.446,-1.00000004 -1,-1.00000004 z M 1.9995103,8.9999183 c -0.554,0 -1.00000003,0.446 -1.00000003,1 v 3.9999997 c 0,0.554 0.44600003,1 1.00000003,1 h 4.0000004 c 0.554,0 1,-0.446 1,-1 V 9.9999183 c 0,-0.554 -0.446,-1 -1,-1 z m 10.0000007,0 c -0.554,0 -1,0.454225 -1,1.0195307 v 1.980469 H 9.4272447 a 0.42863216,0.37504649 0 0 0 -0.302734,0.640625 l 2.5722663,2.25 a 0.42863216,0.37504649 0 0 0 0.605468,0 l 2.572266,-2.25 a 0.42863216,0.37504649 0 0 0 -0.302734,-0.640625 h -1.572266 v -1.980469 c 0,-0.5653057 -0.446,-1.0195307 -1,-1.0195307 z"/>
</svg>

<svg xmlns="http://www.w3.org/2000/svg" width="16" height="16" version="1.1">
 <defs>
  <style id="current-color-scheme" type="text/css">
   .ColorScheme-Text { color:#dfdfdf; } .ColorScheme-Highlight { color:#4285f4; } .ColorScheme-NeutralText { color:#ff9800; } .ColorScheme-PositiveText { color:#4caf50; } .ColorScheme-NegativeText { color:#f44336; }
  </style>
 </defs>
 <path style="fill:currentColor" class="ColorScheme-Text" d="M 2 1 C 1.446 1 1 1.446 1 2 L 1 6 C 1 6.554 1.446 7 2 7 L 6 7 C 6.554 7 7 6.554 7 6 L 7 2 C 7 1.446 6.554 1 6 1 L 2 1 z M 10 1 C 9.446 1 9 1.446 9 2 L 9 6 C 9 6.554 9.446 7 10 7 L 14 7 C 14.554 7 15 6.554 15 6 L 15 2 C 15 1.446 14.554 1 14 1 L 10 1 z M 2 9 C 1.446 9 1 9.446 1 10 L 1 14 C 1 14.554 1.446 15 2 15 L 6 15 C 6.554 15 7 14.554 7 14 L 7 10 C 7 9.446 6.554 9 6 9 L 2 9 z M 12 9 C 11.446 9 11 9.4542252 11 10.019531 L 11 12 L 9.4277344 12 A 0.42863216 0.37504649 0 0 0 9.125 12.640625 L 11.697266 14.890625 A 0.42863216 0.37504649 0 0 0 12.302734 14.890625 L 14.875 12.640625 A 0.42863216 0.37504649 0 0 0 14.572266 12 L 13 12 L 13 10.019531 C 13 9.4542252 12.553999 9 12 9 z"/>
</svg>
